X: 43
T: No_143.krn
N: Derived from No_143.krn
%%abc-version 2.0
%%abcx-abcm2ps-target-version 5.9.1 (29 Sep 2008)
%%abc-creator hum2abc beta
%%abcx-conversion-date 2019/03/15 08:29:13
%%humdrum-veritas 704883070
%%humdrum-veritas-data 1418674048
%%linebreak <none>
%%barnumbers 0
L: 1/16
M: 2/4
%%staves {1 2}
V: 1 clef=bass
V: 2 clef=bass
K: Db
[V:1] [K:clef=bass][M:2/4]A6F2 ||  
[V:2] [K:clef=bass][M:2/4]G,,!accent!G,,2 z G,,!accent!G,,2 z ||  
[V:1] [M:3/4]A4F4D3D | 
[V:2] [M:3/4]G,,!accent!G,,2 z G,,!accent!G,,2 z G,,!accent!G,,2 z | 
[V:1] D12 ||  
[V:2] z12 ||  
[V:1] [M:2/4]F8 | 
[V:2] [M:2/4]z8 | 
[V:1] D4B,4 | 
[V:2] z8 | 
[V:1] {/D}D4A,3A, ||  
[V:2] z8 ||  
[V:1] [M:3/4]A,12 | 
[V:2] [M:3/4]z12 | 
[V:1] {/A,}A,12 ||  
[V:2] z12 ||  
[V:1] [M:2/4]{/__A,}__B,8 | 
[V:2] [M:2/4]z8 | 
[V:1] A,4F,4 ||  
[V:2] z8 ||  
[V:1] [M:3/4]{/A,}A,4F,4D,3D, | 
[V:2] [M:3/4]z12 | 
[V:1] D,12- ||  
[V:2] z12 ||  
[V:1] [M:2/4]D,8 |]  
[V:2] [M:2/4]z8 |]  



